usr/share/icons/biglinux-icons-material/scalable/apps/matray.svg

<?xml version="1.0" encoding="UTF-8" standalone="no"?>
<svg
   width="24"
   height="24"
   version="1"
   id="svg2"
   sodipodi:docname="matray.svg"
   inkscape:version="1.3 (0e150ed6c4, 2023-07-21)"
   xmlns:inkscape="http://www.inkscape.org/namespaces/inkscape"
   xmlns:sodipodi="http://sodipodi.sourceforge.net/DTD/sodipodi-0.dtd"
   xmlns:xlink="http://www.w3.org/1999/xlink"
   xmlns="http://www.w3.org/2000/svg"
   xmlns:svg="http://www.w3.org/2000/svg">
  <defs
     id="defs2">
    <radialGradient
       id="paint0_radial_2_129"
       cx="0"
       cy="0"
       r="1"
       gradientUnits="userSpaceOnUse"
       gradientTransform="matrix(0,22,-22,0,11.999985,1.0000546)">
      <stop
         stop-color="#FAFAFA"
         id="stop8838" />
      <stop
         offset="1"
         stop-color="#B0B0B0"
         id="stop8840" />
    </radialGradient>
  </defs>
  <sodipodi:namedview
     id="namedview2"
     pagecolor="#ffffff"
     bordercolor="#000000"
     borderopacity="0.25"
     inkscape:showpageshadow="2"
     inkscape:pageopacity="0.0"
     inkscape:pagecheckerboard="0"
     inkscape:deskcolor="#d1d1d1"
     inkscape:zoom="17.920737"
     inkscape:cx="6.9472587"
     inkscape:cy="18.553924"
     inkscape:window-width="2560"
     inkscape:window-height="998"
     inkscape:window-x="0"
     inkscape:window-y="0"
     inkscape:window-maximized="1"
     inkscape:current-layer="svg2" />
  <path
     d="M 52.778,16 C 51.239,16 50,17.226 50,18.75 v 32.599 c 0,1.524 1.24,2.645 2.778,2.651 h 25 l 5.556,6 5.555,-6 h 8.333 C 98.762,54 100,52.873 100,51.349 V 18.75 C 100,17.227 98.761,16 97.222,16 Z"
     fill="#35454c"
     id="path1" />
  <path
     d="M 45.67,4 C 44.745,4 44,4.745 44,5.67 V 36.33 C 44,37.255 44.745,38 45.67,38 H 54 V 14 H 66 V 4 Z M 68,4 v 34 h 8.329 c 0.925,0 1.67,-0.745 1.67,-1.67 V 5.67 C 78,4.744 77.255,4 76.33,4 Z M 56,16 V 38 H 66 V 16 Z"
     fill="#16a085"
     id="path2" />
  <image
     x="44"
     y="9"
     width="34"
     height="29"
     preserveAspectRatio="none"
     xlink:href="data:image/png;base64,iVBORw0KGgoAAAANSUhEUgAAACIAAAAdCAYAAADPa766AAAACXBIWXMAAA7DAAAOwwHHb6hkAAAA GXRFWHRTb2Z0d2FyZQB3d3cuaW5rc2NhcGUub3Jnm+48GgAAAmlJREFUSIntlb9uE0EQxr9vdvfO FzuxCOIFrqSlR3mJe5+8j0u3CKWgRVShQiloXV3iGN/t7QyFgxNZyF4jgSj8lXuzM7/5c7PEfvHA 932yY3z4A8EJXAPN7fasyaSYzWYJAJqmkT8BeQp4TTS3vFos+PAw5/prTbwFuuWSXzJBACQA+LJc /i7ZvSAEQDQN393NZY2aAKSoa8a2lcvFlPEibCszxLi35N+ADgBeA+UxIC8g7uT8/NzFtnU/qsqF 1cqN0lhWbkC6N2o1cAKgyPEOAH2ockE2mTUN3929kqKofbzo/LjrAtPIPw7JCwf/+cP8e27sl4qp O88FAYDnSsQLr10XeozLIKsyRCnMu/DrQtM0DgAWi8Xe1tzc3AwAgMJP80GahmuAsW3dxTj5fhiX kroquVCJ0xEG23bi+/3qvZkQxcFEP24CSDYIrzbZyY+qchpjCJLK5EKFAWcqeqbitwNnJlOY5e8X s0yQ62s8zOcs6ppdjMJH9UXSoIJSXKoM/syZjZ79cmJHLDoFJ3kgt5tl1a/XrPpeBo4ckgvetEji SzEdJePz5ItWNOEGKqsyZ3kgANZ1Tde2RF9KGHUuauk84GEaTFGIpO2MmKIQUwIAcRhETLP+9O1C u+ynTGnJTgOdS6KaHOkcSQc698uOpDMYM6sBBdxhqyeQbrkk3kyQ2hFNexpUAEeYCkiBcvtemKpA hLlzYuRxb03sOm7hQ4DTRDNHMwLyIqgIxYyW0RYAkGy7HakqTZ8v7wa0IyCOUVbZ/oVOILs6gezq BLKrE8iuTiC7+j9AKFEwm2k5mdhh678HocSnn/oPAJLjV0UWAAAAAElFTkSuQmCC"
     id="image2" />
  <path
     fill-rule="evenodd"
     clip-rule="evenodd"
     d="M 9.9396846,1.0678345 C 9.8304353,1.0996588 9.7158869,1.1149133 9.5960432,1.1136433 8.8535933,1.1733232 8.1204734,1.2916134 7.3966834,1.4685744 4.2904832,2.2070644 2.3316932,4.1191342 1.5203026,7.2047643 1.1399763,8.7771543 0.96815941,10.372414 1.0048253,11.990714 c -0.0306147,1.5218 0.1182638,3.0255 0.446749,4.5111 0.773999,3.3001 2.8168089,5.319099 6.128399,6.056802 1.7991601,0.370212 3.6166097,0.507597 5.4525097,0.411897 1.6322,-0.02759 3.2206,-0.302406 4.7653,-0.824297 1.9062,-0.699302 3.2846,-1.970202 4.1352,-3.812702 0.4586,-1.0626 0.7565,-2.1694 0.8935,-3.3203 0.183099,-1.6375 0.2213,-3.2786 0.114602,-4.9233 -0.0772,-1.3097598 -0.3292,-2.5844896 -0.7561,-3.8241299 -0.7464,-2.0589597 -2.1325,-3.5054094 -4.1581,-4.3393597 -1.2184,-0.46342 -2.4785,-0.74585 -3.7802,-0.8472499 -1.4356,-0.10159949 -2.8712,-0.10541689 -4.3070004,-0.01134 z"
     fill="url(#paint0_radial_2_129)"
     id="path8836"
     style="fill:url(#paint0_radial_2_129);stroke-width:1"
     sodipodi:nodetypes="cccccccccccccccc" />
  <path
     d="m 7.5377501,8.2857142 c -0.3572677,0 -0.6448927,0.2846072 -0.6448927,0.6383929 v 7.5676249 c 0,0.353786 0.2878572,0.614018 0.6448927,0.615411 H 13.341322 L 14.631107,18.5 15.920661,17.107143 h 1.934446 c 0.3575,0 0.644893,-0.261625 0.644893,-0.615411 V 8.9241071 c 0,-0.3535536 -0.287625,-0.6383929 -0.644893,-0.6383929 z"
     fill="#35454c"
     id="path3"
     style="stroke-width:0.999995" />
  <path
     d="m 5.8876791,5.5 c -0.2147322,0 -0.387679,0.1729463 -0.387679,0.3876785 v 7.1174995 c 0,0.214732 0.1729468,0.387679 0.387679,0.387679 H 7.8214292 V 7.8214285 H 10.607143 V 5.5 Z m 5.1837499,0 v 7.892857 h 1.933518 c 0.214732,0 0.387678,-0.172947 0.387678,-0.387679 V 5.8876785 C 13.392857,5.6727143 13.219911,5.5 13.005179,5.5 Z M 8.2857146,8.2857142 V 13.392857 H 10.607143 V 8.2857142 Z"
     fill="#16a085"
     id="path4"
     style="stroke-width:0.999995" />
  <path
     id="path5"
     style="stroke-width:0.999995;fill:#35454c;fill-opacity:1;opacity:0.5"
     d="m 7.537109,8.2851562 c -0.357267,0 -0.644531,0.2848866 -0.644531,0.6386719 V 13.392578 H 7.822266 V 8.2851562 Z m 0.748047,0 v 5.1074218 h 2.322266 V 8.2851562 Z m 2.78711,0 v 5.1074218 h 1.933593 c 0.214732,0 0.386719,-0.171987 0.386719,-0.386719 V 8.2851562 Z" />
</svg>

<svg xmlns="http://www.w3.org/2000/svg" xmlns:xlink="http://www.w3.org/1999/xlink" width="24" height="24" version="1"><defs><radialGradient id="a" cx="0" cy="0" r="1" gradientTransform="matrix(0 22 -22 0 12 1)" gradientUnits="userSpaceOnUse"><stop stop-color="#FAFAFA"/><stop offset="1" stop-color="#B0B0B0"/></radialGradient></defs><path fill="#35454c" d="M52.778 16C51.239 16 50 17.226 50 18.75v32.599c0 1.524 1.24 2.645 2.778 2.651h25l5.556 6 5.555-6h8.333c1.54 0 2.778-1.127 2.778-2.651V18.75c0-1.523-1.239-2.75-2.778-2.75Z"/><path fill="#16a085" d="M45.67 4C44.745 4 44 4.745 44 5.67v30.66c0 .925.745 1.67 1.67 1.67H54V14h12V4ZM68 4v34h8.329c.925 0 1.67-.745 1.67-1.67V5.67A1.664 1.664 0 0 0 76.33 4ZM56 16v22h10V16Z"/><image xlink:href="data:image/png;base64,iVBORw0KGgoAAAANSUhEUgAAACIAAAAdCAYAAADPa766AAAACXBIWXMAAA7DAAAOwwHHb6hkAAAA GXRFWHRTb2Z0d2FyZQB3d3cuaW5rc2NhcGUub3Jnm+48GgAAAmlJREFUSIntlb9uE0EQxr9vdvfO FzuxCOIFrqSlR3mJe5+8j0u3CKWgRVShQiloXV3iGN/t7QyFgxNZyF4jgSj8lXuzM7/5c7PEfvHA 932yY3z4A8EJXAPN7fasyaSYzWYJAJqmkT8BeQp4TTS3vFos+PAw5/prTbwFuuWSXzJBACQA+LJc /i7ZvSAEQDQN393NZY2aAKSoa8a2lcvFlPEibCszxLi35N+ADgBeA+UxIC8g7uT8/NzFtnU/qsqF 1cqN0lhWbkC6N2o1cAKgyPEOAH2ockE2mTUN3929kqKofbzo/LjrAtPIPw7JCwf/+cP8e27sl4qp O88FAYDnSsQLr10XeozLIKsyRCnMu/DrQtM0DgAWi8Xe1tzc3AwAgMJP80GahmuAsW3dxTj5fhiX kroquVCJ0xEG23bi+/3qvZkQxcFEP24CSDYIrzbZyY+qchpjCJLK5EKFAWcqeqbitwNnJlOY5e8X s0yQ62s8zOcs6ppdjMJH9UXSoIJSXKoM/syZjZ79cmJHLDoFJ3kgt5tl1a/XrPpeBo4ckgvetEji SzEdJePz5ItWNOEGKqsyZ3kgANZ1Tde2RF9KGHUuauk84GEaTFGIpO2MmKIQUwIAcRhETLP+9O1C u+ynTGnJTgOdS6KaHOkcSQc698uOpDMYM6sBBdxhqyeQbrkk3kyQ2hFNexpUAEeYCkiBcvtemKpA hLlzYuRxb03sOm7hQ4DTRDNHMwLyIqgIxYyW0RYAkGy7HakqTZ8v7wa0IyCOUVbZ/oVOILs6gezq BLKrE8iuTiC7+j9AKFEwm2k5mdhh678HocSnn/oPAJLjV0UWAAAAAElFTkSuQmCC" width="34" height="29" x="44" y="9" preserveAspectRatio="none"/><path fill="url(#a)" fill-rule="evenodd" d="M9.94 1.068c-.11.032-.224.047-.344.046-.742.06-1.476.178-2.2.355-3.106.738-5.064 2.65-5.876 5.736a18.49 18.49 0 0 0-.515 4.786c-.03 1.522.118 3.025.447 4.51.774 3.3 2.816 5.32 6.128 6.058 1.8.37 3.617.507 5.452.412a15.624 15.624 0 0 0 4.766-.825c1.906-.7 3.284-1.97 4.135-3.812a11.88 11.88 0 0 0 .893-3.32c.184-1.638.222-3.28.115-4.924a14.269 14.269 0 0 0-.756-3.824c-.746-2.06-2.133-3.506-4.158-4.34a13.536 13.536 0 0 0-3.78-.847 31.637 31.637 0 0 0-4.307-.011z" clip-rule="evenodd" style="fill:url(#a);stroke-width:1"/><path fill="#35454c" d="M7.538 8.286a.64.64 0 0 0-.645.638v7.568c0 .354.288.614.645.615h5.803l1.29 1.393 1.29-1.393h1.934c.358 0 .645-.261.645-.615V8.924a.64.64 0 0 0-.645-.638z" style="stroke-width:.999995"/><path fill="#16a085" d="M5.888 5.5a.387.387 0 0 0-.388.388v7.117c0 .215.173.388.388.388H7.82V7.82h2.786V5.5Zm5.183 0v7.893h1.934a.387.387 0 0 0 .388-.388V5.888a.386.386 0 0 0-.388-.388ZM8.286 8.286v5.107h2.321V8.286Z" style="stroke-width:.999995"/><path d="M7.537 8.285a.64.64 0 0 0-.644.639v4.469h.93V8.285Zm.748 0v5.108h2.322V8.285Zm2.787 0v5.108h1.934a.385.385 0 0 0 .387-.387v-4.72Z" style="stroke-width:.999995;fill:#35454c;fill-opacity:1;opacity:.5"/></svg>
